assets/svg/app/open-external.svg

<svg width="16" height="16" viewBox="0 0 16 16" fill="none" xmlns="http://www.w3.org/2000/svg">
<path fill-rule="evenodd" clip-rule="evenodd" d="M2.31901 2.16667V13.8333H13.9857V8H15.6523V13.8333C15.6523 14.75 14.9023 15.5 13.9857 15.5H2.31901C1.39401 15.5 0.652344 14.75 0.652344 13.8333V2.16667C0.652344 1.25 1.39401 0.5 2.31901 0.5H8.15234V2.16667H2.31901ZM9.81901 2.16667V0.5H15.6523V6.33333H13.9857V3.34167L5.79401 11.5333L4.61901 10.3583L12.8107 2.16667H9.81901Z" fill="#00D1FF"/>
</svg>

<svg viewBox="0 0 16 16" fill="none" xmlns="http://www.w3.org/2000/svg">
    <path fill-rule="evenodd" clip-rule="evenodd" d="M2.319 2.167v11.666h11.667V8h1.666v5.833c0 .917-.75 1.667-1.666 1.667H2.319c-.925 0-1.667-.75-1.667-1.667V2.167C.652 1.25 1.394.5 2.32.5h5.833v1.667H2.32zm7.5 0V.5h5.833v5.833h-1.666V3.342l-8.192 8.191-1.175-1.175 8.192-8.191H9.819z" fill="#00D1FF"/>
</svg>
